Numix/32x32/categories/gnome-applications.svg

<?xml version="1.0" encoding="UTF-8" standalone="no"?>
<svg
   xmlns:dc="http://purl.org/dc/elements/1.1/"
   xmlns:cc="http://creativecommons.org/ns#"
   xmlns:rdf="http://www.w3.org/1999/02/22-rdf-syntax-ns#"
   xmlns:svg="http://www.w3.org/2000/svg"
   xmlns="http://www.w3.org/2000/svg"
   xmlns:sodipodi="http://sodipodi.sourceforge.net/DTD/sodipodi-0.dtd"
   xmlns:inkscape="http://www.inkscape.org/namespaces/inkscape"
   width="32"
   height="32"
   viewBox="0 0 32 32"
   id="svg2"
   version="1.1"
   inkscape:version="0.91 r"
   sodipodi:docname="gnome-applications.svg">
  <metadata
     id="metadata20">
    <rdf:RDF>
      <cc:Work
         rdf:about="">
        <dc:format>image/svg+xml</dc:format>
        <dc:type
           rdf:resource="http://purl.org/dc/dcmitype/StillImage" />
      </cc:Work>
    </rdf:RDF>
  </metadata>
  <defs
     id="defs18" />
  <sodipodi:namedview
     pagecolor="#ffffff"
     bordercolor="#666666"
     borderopacity="1"
     objecttolerance="10"
     gridtolerance="10"
     guidetolerance="10"
     inkscape:pageopacity="0"
     inkscape:pageshadow="2"
     inkscape:window-width="961"
     inkscape:window-height="480"
     id="namedview16"
     showgrid="false"
     inkscape:zoom="7.375"
     inkscape:cx="16"
     inkscape:cy="16"
     inkscape:window-x="10"
     inkscape:window-y="34"
     inkscape:window-maximized="0"
     inkscape:current-layer="svg2" />
  <g
     style="fill:#6f8bc0"
     id="g4"
     transform="translate(0.16676205,0.1660155)">
    <path
       d="m 23.839844,3.464844 c -5.191406,0 -6.164063,7.328125 -3.242188,7.328125 2.914063,0 8.425782,-7.328125 3.242188,-7.328125 z"
       id="path6"
       inkscape:connector-curvature="0" />
    <path
       d="m 15.222656,9.886719 c 1.554688,0.09375 3.261719,-5.882813 0.339844,-5.507813 -2.917969,0.375 -1.894531,5.414063 -0.339844,5.507813 z"
       id="path8"
       inkscape:connector-curvature="0" />
    <path
       d="M 8.101562,13.601562 C 9.207031,13.117188 8.246094,8.394531 6.367188,9.683594 4.488281,10.96875 7,14.082031 8.101562,13.601562 Z"
       id="path10"
       inkscape:connector-curvature="0" />
    <path
       d="M 11.21875,11.128906 C 12.53125,10.863281 12.605469,5.507812 10.261719,6.46875 7.914062,7.433594 9.902344,11.394531 11.21875,11.128906 Z"
       id="path12"
       inkscape:connector-curvature="0" />
    <path
       d="m 18.085938,23.109375 c 0.234374,1.769531 -1.308594,2.644531 -2.816407,1.503906 -4.804687,-3.628906 7.957031,-5.441406 7.113281,-10.402343 -0.695312,-4.113282 -13.425781,-2.847657 -14.871093,3.59375 -0.984375,4.355468 4.035156,10.398437 9.273437,10.398437 2.578125,0 5.546875,-2.308594 6.101563,-5.230469 0.425781,-2.230468 -4.996094,-1.339844 -4.800781,0.136719 z"
       id="path14"
       inkscape:connector-curvature="0" />
  </g>
</svg>

<svg width="32" xmlns="http://www.w3.org/2000/svg" height="32" viewBox="0 0 32 32" xmlns:xlink="http://www.w3.org/1999/xlink">
<g style="fill:#6f8bc0">
<path d="M 23.839844 3.464844 C 18.648438 3.464844 17.675781 10.792969 20.597656 10.792969 C 23.511719 10.792969 29.023438 3.464844 23.839844 3.464844 Z "/>
<path d="M 15.222656 9.886719 C 16.777344 9.980469 18.484375 4.003906 15.5625 4.378906 C 12.644531 4.753906 13.667969 9.792969 15.222656 9.886719 Z "/>
<path d="M 8.101562 13.601562 C 9.207031 13.117188 8.246094 8.394531 6.367188 9.683594 C 4.488281 10.96875 7 14.082031 8.101562 13.601562 Z "/>
<path d="M 11.21875 11.128906 C 12.53125 10.863281 12.605469 5.507812 10.261719 6.46875 C 7.914062 7.433594 9.902344 11.394531 11.21875 11.128906 Z "/>
<path d="M 18.085938 23.109375 C 18.320312 24.878906 16.777344 25.753906 15.269531 24.613281 C 10.464844 20.984375 23.226562 19.171875 22.382812 14.210938 C 21.6875 10.097656 8.957031 11.363281 7.511719 17.804688 C 6.527344 22.160156 11.546875 28.203125 16.785156 28.203125 C 19.363281 28.203125 22.332031 25.894531 22.886719 22.972656 C 23.3125 20.742188 17.890625 21.632812 18.085938 23.109375 Z "/>
</g>
</svg>
